svg/emoji_u1f9d4_1f3fd_2640.svg

<?xml version="1.0" encoding="UTF-8" standalone="no"?>
<svg
   xmlns:dc="http://purl.org/dc/elements/1.1/"
   xmlns:cc="http://creativecommons.org/ns#"
   xmlns:rdf="http://www.w3.org/1999/02/22-rdf-syntax-ns#"
   xmlns:svg="http://www.w3.org/2000/svg"
   xmlns="http://www.w3.org/2000/svg"
   xmlns:sodipodi="http://sodipodi.sourceforge.net/DTD/sodipodi-0.dtd"
   xmlns:inkscape="http://www.inkscape.org/namespaces/inkscape"
   width="128"
   height="128"
   style="enable-background:new 0 0 128 128;"
   version="1.1"
   id="svg20"
   sodipodi:docname="emoji_u1f9d4_1f3fb.svg"
   inkscape:version="0.92.2 5c3e80d, 2017-08-06">
  <metadata
     id="metadata26">
    <rdf:RDF>
      <cc:Work
         rdf:about="">
        <dc:format>image/svg+xml</dc:format>
        <dc:type
           rdf:resource="http://purl.org/dc/dcmitype/StillImage" />
      </cc:Work>
    </rdf:RDF>
  </metadata>
  <defs
     id="defs24" />
  <sodipodi:namedview
     pagecolor="#ffffff"
     bordercolor="#666666"
     inkscape:document-rotation="0"
     borderopacity="1"
     objecttolerance="10"
     gridtolerance="10"
     guidetolerance="10"
     inkscape:pageopacity="0"
     inkscape:pageshadow="2"
     inkscape:window-width="1440"
     inkscape:window-height="856"
     id="namedview22"
     showgrid="false"
     inkscape:object-paths="true"
     inkscape:zoom="3.8504174"
     inkscape:cx="16.785097"
     inkscape:cy="10.060676"
     inkscape:window-x="26"
     inkscape:window-y="255"
     inkscape:window-maximized="0"
     inkscape:current-layer="svg20" />
  <path
     id="XMLID_1762_"
     d="M 118.5,55.8 65.02,53.58 64,53.56 v 0 0 0 0 L 62.98,53.58 9.5,55.8 c 0,0 -0.27,25.78 3.16,48.84 2.55,17.15 2.99,19.87 15.19,18.47 17.52,-2.01 26.24,-4.48 35.66,-4.5 0.16,0 0.33,0.01 0.49,0.01 v 0 0 0 0 c 0.16,0 0.33,-0.01 0.49,-0.01 9.42,0.01 18.15,2.49 35.66,4.5 12.2,1.4 12.64,-1.32 15.19,-18.47 3.43,-23.06 3.16,-48.84 3.16,-48.84 z"
     style="fill:#6d4c41;fill-opacity:1"
     inkscape:connector-curvature="0" />
  <ellipse
     id="XMLID_201_"
     cx="64"
     cy="56.060001"
     rx="54.5"
     ry="50.299999"
     style="fill:#6d4c41;fill-opacity:1" />
  <path
     style="fill:#bf8f68;fill-opacity:1"
     d="M 64.169922 14.869141 C 31.059922 14.869141 21.220703 38.229297 21.220703 73.779297 C 21.220703 81.054911 22.358649 87.362978 24.285156 92.818359 C 25.307686 95.713907 26.554565 98.365191 27.980469 100.78516 C 28.550216 101.75266 29.150009 102.68188 29.773438 103.57617 C 29.773741 103.57661 29.773134 103.57769 29.773438 103.57812 C 31.64472 106.26222 33.74316 108.62028 35.988281 110.67383 C 37.110887 111.70129 38.270447 112.65111 39.455078 113.5293 C 39.469592 113.54006 39.483525 113.55176 39.498047 113.5625 C 39.932029 113.88339 40.370182 114.19276 40.810547 114.49414 C 40.839194 114.51375 40.867812 114.53321 40.896484 114.55273 C 42.63301 115.73521 44.413547 116.76405 46.208984 117.6543 C 46.336807 117.71756 46.463846 117.78387 46.591797 117.8457 C 46.953147 118.02064 47.315698 118.188 47.677734 118.35156 C 47.85416 118.43112 48.030534 118.50905 48.207031 118.58594 C 48.545957 118.73386 48.885729 118.87944 49.224609 119.01758 C 49.446533 119.10787 49.668872 119.1912 49.890625 119.27734 C 50.549646 119.53382 51.207786 119.77384 51.863281 119.99414 C 51.973018 120.03102 52.083771 120.07154 52.193359 120.10742 C 52.508611 120.21064 52.820978 120.30539 53.134766 120.40039 C 53.337416 120.46162 53.540267 120.52224 53.742188 120.58008 C 54.589156 120.82314 55.429819 121.03826 56.259766 121.22266 C 56.378876 121.24907 56.496555 121.2697 56.615234 121.29492 C 57.386262 121.45913 58.148774 121.5999 58.898438 121.71484 C 58.989781 121.72882 59.082849 121.74651 59.173828 121.75977 C 59.952721 121.8735 60.71411 121.9576 61.462891 122.01953 C 61.642562 122.03436 61.820337 122.04473 61.998047 122.05664 C 62.737864 122.10629 63.467902 122.14064 64.169922 122.14062 C 64.877 122.14062 65.611314 122.1063 66.355469 122.05469 C 66.520868 122.04323 66.686471 122.03163 66.853516 122.01758 C 67.594336 121.95514 68.347741 121.87029 69.117188 121.75586 C 69.227517 121.73948 69.340324 121.71668 69.451172 121.69922 C 70.178173 121.58446 70.915702 121.44738 71.662109 121.28516 C 71.782137 121.25912 71.901028 121.23627 72.021484 121.20898 C 72.843135 121.02253 73.675932 120.80592 74.513672 120.56055 C 74.751907 120.49088 74.991272 120.41631 75.230469 120.3418 C 75.498798 120.25807 75.765822 120.17778 76.035156 120.08789 C 76.042908 120.08531 76.050841 120.08267 76.058594 120.08008 C 76.526125 119.92375 76.995186 119.75908 77.464844 119.58398 C 77.775966 119.46799 78.088743 119.34112 78.400391 119.2168 C 78.599129 119.13764 78.797248 119.05914 78.996094 118.97656 C 79.339156 118.83388 79.682356 118.68419 80.025391 118.53125 C 80.20248 118.45241 80.379644 118.3726 80.556641 118.29102 C 80.889032 118.13757 81.22098 117.9816 81.552734 117.81836 C 81.733934 117.72933 81.914783 117.63494 82.095703 117.54297 C 83.313854 116.92281 84.524594 116.23887 85.71875 115.48242 C 85.79346 115.43516 85.868784 115.3896 85.943359 115.3418 C 86.349364 115.08118 86.752743 114.81005 87.154297 114.5332 C 87.223224 114.48575 87.292545 114.43856 87.361328 114.39062 C 87.777487 114.10021 88.1912 113.80427 88.601562 113.49609 C 89.914772 112.50988 91.196464 111.43048 92.431641 110.25781 C 92.468104 110.22323 92.504633 110.18905 92.541016 110.1543 C 92.948086 109.76511 93.349692 109.36514 93.746094 108.95508 C 94.562081 108.11097 95.35493 107.22324 96.119141 106.28906 C 96.883351 105.35489 97.618923 104.37427 98.322266 103.34766 C 98.673937 102.83435 99.016766 102.31026 99.351562 101.77344 C 100.67603 99.649763 101.86384 97.338386 102.88086 94.835938 C 102.90077 94.786955 102.92163 94.738584 102.94141 94.689453 C 103.18772 94.077512 103.42304 93.455427 103.64844 92.820312 C 103.64892 92.81896 103.64991 92.81776 103.65039 92.816406 C 105.61723 87.272828 106.7793 80.853147 106.7793 73.449219 C 106.7793 37.889219 97.279922 14.869141 64.169922 14.869141 z "
     id="XMLID_200_" />
  <path
     id="XMLID_196_"
     d="m 49.91,77.19 c 0,3.81 -2.55,6.9 -5.71,6.9 -3.16,0 -5.73,-3.09 -5.73,-6.9 0,-3.82 2.57,-6.91 5.73,-6.91 3.16,0 5.71,3.09 5.71,6.91"
     style="fill:#444444"
     inkscape:connector-curvature="0" />
  <path
     id="XMLID_195_"
     d="m 78.08,77.19 c 0,3.81 2.56,6.9 5.72,6.9 3.15,0 5.72,-3.09 5.72,-6.9 0,-3.82 -2.57,-6.91 -5.72,-6.91 -3.16,0 -5.72,3.09 -5.72,6.91"
     style="fill:#444444"
     inkscape:connector-curvature="0" />
  <path
     id="XMLID_194_"
     d="m 76.46,42.76 c -4.34,4.17 -25.9,23.6 -55.62,28.68 V 31.6 c 0,0 12.83,-25.45 43.61,-25.45 30.78,0 43.61,26.09 43.61,26.09 v 39.2 c 0,0 -20.17,-7.74 -30.3,-28.43 -0.25,-0.51 -0.9,-0.64 -1.3,-0.25 z"
     style="fill:#312d2d"
     inkscape:connector-curvature="0" />
  <path
     id="XMLID_802_"
     d="m 76.46,42.76 c -4.34,4.17 -25.9,23.6 -55.62,28.68 V 31.6 c 0,0 12.83,-25.45 43.61,-25.45 30.78,0 43.61,26.09 43.61,26.09 v 39.2 c 0,0 -20.17,-7.74 -30.3,-28.43 -0.25,-0.51 -0.9,-0.64 -1.3,-0.25 z"
     style="fill:#6d4c41;fill-opacity:1"
     inkscape:connector-curvature="0" />
  <g
     id="g13">
    <path
       id="XMLID_806_"
       d="m 49.91,77.19 c 0,3.81 -2.55,6.9 -5.71,6.9 -3.16,0 -5.73,-3.09 -5.73,-6.9 0,-3.82 2.57,-6.91 5.73,-6.91 3.16,0 5.71,3.09 5.71,6.91"
       style="fill:#444444"
       inkscape:connector-curvature="0" />
    <path
       id="XMLID_803_"
       d="m 78.08,77.19 c 0,3.81 2.56,6.9 5.72,6.9 3.15,0 5.72,-3.09 5.72,-6.9 0,-3.82 -2.57,-6.91 -5.72,-6.91 -3.16,0 -5.72,3.09 -5.72,6.91"
       style="fill:#444444"
       inkscape:connector-curvature="0" />
  </g>
  <path
     id="XMLID_192_"
     d="m 76.38,100.52 c -1.73,0 -12.38,0 -12.38,0 0,0 -10.65,0 -12.38,0 -1.42,0 -2.03,0.95 -1.09,2.38 1.31,2 6.19,5.85 13.47,5.85 7.28,0 12.16,-3.85 13.47,-5.85 0.94,-1.43 0.33,-2.38 -1.09,-2.38 z"
     style="fill:#513f35"
     inkscape:connector-curvature="0" />
  <path
     id="XMLID_793_"
     d="m 69.98,89.99 c -2.11,0.6 -4.29,0.89 -5.98,0.89 -1.69,0 -3.87,-0.29 -5.98,-0.89 -0.9,-0.26 -1.25,0.6 -0.93,1.17 0.67,1.18 3.36,3.55 6.91,3.55 3.55,0 6.24,-2.37 6.91,-3.55 0.33,-0.57 -0.03,-1.42 -0.93,-1.17 z"
     style="fill:#99674f;fill-opacity:1"
     inkscape:connector-curvature="0" />
  <path
     id="XMLID_798_"
     d="m 76.38,100.52 c -1.73,0 -12.38,0 -12.38,0 0,0 -10.65,0 -12.38,0 -1.42,0 -2.03,0.95 -1.09,2.38 1.31,2 6.19,5.85 13.47,5.85 7.28,0 12.16,-3.85 13.47,-5.85 0.94,-1.43 0.33,-2.38 -1.09,-2.38 z"
     style="fill:#513f35"
     inkscape:connector-curvature="0" />
  <path
     style="opacity:1;vector-effect:none;fill:#6d4c41;stroke-width:1;paint-order:stroke fill markers;fill-opacity:1;stroke-linecap:butt;stroke-linejoin:miter;stroke-miterlimit:4;stroke-dasharray:none;stroke-dashoffset:0;stroke-opacity:1"
     d="M 63.804688 94.886719 A 64.29248 18.366867 0 0 0 26.626953 98.283203 C 27.059927 99.139726 27.50622 99.980286 27.980469 100.78516 C 28.550216 101.75266 29.150009 102.68188 29.773438 103.57617 C 29.773438 103.57617 29.773438 103.57812 29.773438 103.57812 C 31.64472 106.26223 33.74316 108.62028 35.988281 110.67383 C 37.110887 111.70129 38.270447 112.65111 39.455078 113.5293 C 39.469592 113.54006 39.483525 113.55176 39.498047 113.5625 C 39.932029 113.88339 40.370182 114.19276 40.810547 114.49414 C 40.839194 114.51375 40.867812 114.53321 40.896484 114.55273 C 42.63301 115.73521 44.413547 116.76405 46.208984 117.6543 C 46.336807 117.71756 46.463846 117.78387 46.591797 117.8457 C 46.953147 118.02064 47.315698 118.188 47.677734 118.35156 C 47.85416 118.43112 48.030534 118.50905 48.207031 118.58594 C 48.545957 118.73386 48.885729 118.87944 49.224609 119.01758 C 49.446533 119.10787 49.668872 119.1912 49.890625 119.27734 C 50.549646 119.53382 51.207786 119.77384 51.863281 119.99414 C 51.973018 120.03102 52.083771 120.07154 52.193359 120.10742 C 52.508611 120.21064 52.820978 120.30539 53.134766 120.40039 C 53.337416 120.46162 53.540267 120.52224 53.742188 120.58008 C 54.589156 120.82314 55.429819 121.03826 56.259766 121.22266 C 56.378876 121.24907 56.496555 121.2697 56.615234 121.29492 C 57.386262 121.45913 58.148774 121.5999 58.898438 121.71484 C 58.989781 121.72882 59.082849 121.74651 59.173828 121.75977 C 59.952721 121.8735 60.71411 121.9576 61.462891 122.01953 C 61.642562 122.03436 61.820337 122.04473 61.998047 122.05664 C 62.737864 122.10629 63.467902 122.14065 64.169922 122.14062 C 64.877 122.14062 65.611314 122.1063 66.355469 122.05469 C 66.520868 122.04323 66.686471 122.03163 66.853516 122.01758 C 67.594336 121.95514 68.347741 121.87029 69.117188 121.75586 C 69.227517 121.73948 69.340324 121.71668 69.451172 121.69922 C 70.178173 121.58446 70.915702 121.44738 71.662109 121.28516 C 71.782137 121.25912 71.901028 121.23627 72.021484 121.20898 C 72.843135 121.02253 73.675932 120.80592 74.513672 120.56055 C 74.751907 120.49088 74.991272 120.41631 75.230469 120.3418 C 75.498798 120.25807 75.765822 120.17778 76.035156 120.08789 C 76.042908 120.08531 76.050841 120.08267 76.058594 120.08008 C 76.526125 119.92375 76.995186 119.75908 77.464844 119.58398 C 77.775966 119.46799 78.088743 119.34112 78.400391 119.2168 C 78.599129 119.13764 78.797248 119.05914 78.996094 118.97656 C 79.339156 118.83388 79.682356 118.68419 80.025391 118.53125 C 80.20248 118.45241 80.379644 118.3726 80.556641 118.29102 C 80.889032 118.13757 81.22098 117.9816 81.552734 117.81836 C 81.733934 117.72933 81.914783 117.63494 82.095703 117.54297 C 83.313854 116.92281 84.524594 116.23887 85.71875 115.48242 C 85.79346 115.43516 85.868784 115.3896 85.943359 115.3418 C 86.349364 115.08118 86.752743 114.81005 87.154297 114.5332 C 87.223224 114.48575 87.292545 114.43856 87.361328 114.39062 C 87.777487 114.10022 88.1912 113.80427 88.601562 113.49609 C 89.914772 112.50988 91.196464 111.43048 92.431641 110.25781 C 92.468104 110.22323 92.504633 110.18905 92.541016 110.1543 C 92.948086 109.76511 93.349692 109.36514 93.746094 108.95508 C 94.562081 108.11097 95.35493 107.22324 96.119141 106.28906 C 96.883351 105.35489 97.618923 104.37427 98.322266 103.34766 C 98.673937 102.83435 99.016766 102.31026 99.351562 101.77344 C 100.03058 100.68469 100.67281 99.545295 101.27539 98.357422 A 64.29248 18.366867 0 0 0 63.804688 94.886719 z M 47.191406 99.048828 L 64 99.048828 L 80.808594 99.048828 C 82.736564 99.048828 83.565326 100.33776 82.289062 102.2793 C 80.510442 104.99475 73.884239 110.22266 64 110.22266 C 54.11576 110.22266 47.489556 104.99475 45.710938 102.2793 C 44.434677 100.33776 45.263436 99.048828 47.191406 99.048828 z "
     id="path6544" />
  <path
     inkscape:connector-curvature="0"
     style="fill:#513f35"
     d="m 76.38,100.52 c -1.73,0 -12.38,0 -12.38,0 0,0 -10.65,0 -12.38,0 -1.42,0 -2.03,0.95 -1.09,2.38 1.31,2 6.19,5.85 13.47,5.85 7.28,0 12.16,-3.85 13.47,-5.85 0.94,-1.43 0.33,-2.38 -1.09,-2.38 z"
     id="path6546" />
</svg>

<svg xmlns="http://www.w3.org/2000/svg" width="128" height="128"><path d="M118.5 55.8l-53.48-2.22-1.02-.02-1.02.02L9.5 55.8s-.27 25.78 3.16 48.84c2.55 17.15 2.99 19.87 15.19 18.47 17.52-2.01 26.24-4.48 35.66-4.5.16 0 .33.01.49.01.16 0 .33-.01.49-.01 9.42.01 18.15 2.49 35.66 4.5 12.2 1.4 12.64-1.32 15.19-18.47 3.43-23.06 3.16-48.84 3.16-48.84z" fill="#6d4c41"/><ellipse cx="64" cy="56.06" rx="54.5" ry="50.3" fill="#6d4c41"/><path d="M64.17 14.87c-33.11 0-42.95 23.36-42.95 58.91 0 7.275 1.139 13.583 3.065 19.038a45.502 45.502 0 0 0 3.695 7.967c.57.968 1.17 1.897 1.793 2.791v.002a42.687 42.687 0 0 0 6.215 7.096 43.505 43.505 0 0 0 3.467 2.855l.043.034c.434.32.872.63 1.313.931l.085.059a44.767 44.767 0 0 0 5.313 3.101c.128.064.255.13.383.192a45.11 45.11 0 0 0 1.615.74c.339.148.679.293 1.018.432.222.09.444.173.666.26.659.256 1.317.496 1.972.716.11.037.22.078.33.113.316.104.628.198.942.293a43.94 43.94 0 0 0 3.125.823c.119.026.237.047.355.072a40.29 40.29 0 0 0 2.283.42c.092.014.185.032.276.045.779.114 1.54.198 2.289.26.18.014.357.025.535.037.74.05 1.47.084 2.172.084.707 0 1.441-.035 2.185-.086a33.79 33.79 0 0 0 2.762-.3c.11-.016.223-.038.334-.056a39.157 39.157 0 0 0 2.211-.414c.12-.026.239-.049.36-.076a41.737 41.737 0 0 0 2.492-.648c.238-.07.477-.145.716-.22.269-.083.536-.163.805-.253l.024-.008c.467-.156.936-.32 1.406-.496.311-.116.624-.243.935-.367.2-.08.397-.158.596-.24a44.474 44.474 0 0 0 1.56-.686c.333-.153.665-.31.997-.473.18-.089.362-.183.543-.275a44.452 44.452 0 0 0 3.623-2.06c.074-.048.15-.093.224-.141.406-.26.81-.532 1.211-.809a43.784 43.784 0 0 0 1.447-1.037 43.532 43.532 0 0 0 3.83-3.238l.11-.104a43.172 43.172 0 0 0 5.781-6.806c.352-.514.695-1.038 1.03-1.575a45.37 45.37 0 0 0 3.529-6.937l.06-.147c.247-.611.482-1.234.707-1.869l.002-.004c1.967-5.543 3.13-11.963 3.13-19.367 0-35.56-9.5-58.58-42.61-58.58z" fill="#bf8f68"/><path d="M49.91 77.19c0 3.81-2.55 6.9-5.71 6.9s-5.73-3.09-5.73-6.9c0-3.82 2.57-6.91 5.73-6.91 3.16 0 5.71 3.09 5.71 6.91M78.08 77.19c0 3.81 2.56 6.9 5.72 6.9 3.15 0 5.72-3.09 5.72-6.9 0-3.82-2.57-6.91-5.72-6.91-3.16 0-5.72 3.09-5.72 6.91" fill="#444"/><path d="M76.46 42.76c-4.34 4.17-25.9 23.6-55.62 28.68V31.6S33.67 6.15 64.45 6.15s43.61 26.09 43.61 26.09v39.2s-20.17-7.74-30.3-28.43c-.25-.51-.9-.64-1.3-.25z" fill="#312d2d"/><path d="M76.46 42.76c-4.34 4.17-25.9 23.6-55.62 28.68V31.6S33.67 6.15 64.45 6.15s43.61 26.09 43.61 26.09v39.2s-20.17-7.74-30.3-28.43c-.25-.51-.9-.64-1.3-.25z" fill="#6d4c41"/><g fill="#444"><path d="M49.91 77.19c0 3.81-2.55 6.9-5.71 6.9s-5.73-3.09-5.73-6.9c0-3.82 2.57-6.91 5.73-6.91 3.16 0 5.71 3.09 5.71 6.91M78.08 77.19c0 3.81 2.56 6.9 5.72 6.9 3.15 0 5.72-3.09 5.72-6.9 0-3.82-2.57-6.91-5.72-6.91-3.16 0-5.72 3.09-5.72 6.91"/></g><path d="M76.38 100.52H64 51.62c-1.42 0-2.03.95-1.09 2.38 1.31 2 6.19 5.85 13.47 5.85s12.16-3.85 13.47-5.85c.94-1.43.33-2.38-1.09-2.38z" fill="#513f35"/><path d="M69.98 89.99c-2.11.6-4.29.89-5.98.89-1.69 0-3.87-.29-5.98-.89-.9-.26-1.25.6-.93 1.17.67 1.18 3.36 3.55 6.91 3.55 3.55 0 6.24-2.37 6.91-3.55.33-.57-.03-1.42-.93-1.17z" fill="#99674f"/><path d="M76.38 100.52H64 51.62c-1.42 0-2.03.95-1.09 2.38 1.31 2 6.19 5.85 13.47 5.85s12.16-3.85 13.47-5.85c.94-1.43.33-2.38-1.09-2.38z" fill="#513f35"/><path d="M63.805 94.887a64.292 18.367 0 0 0-37.178 3.396c.433.857.88 1.697 1.353 2.502.57.968 1.17 1.897 1.793 2.791v.002a42.687 42.687 0 0 0 6.215 7.096 43.505 43.505 0 0 0 3.467 2.855l.043.034c.434.32.872.63 1.313.931l.085.059a44.767 44.767 0 0 0 5.313 3.101c.128.064.255.13.383.192a45.11 45.11 0 0 0 1.615.74c.339.148.679.293 1.018.432.222.09.444.173.666.26.659.256 1.317.496 1.972.716.11.037.22.078.33.113.316.104.628.198.942.293a43.94 43.94 0 0 0 3.125.823c.119.026.237.047.355.072a40.29 40.29 0 0 0 2.283.42c.092.014.185.032.276.045.779.114 1.54.198 2.289.26.18.014.357.025.535.037.74.05 1.47.084 2.172.084.707 0 1.441-.035 2.185-.086a33.79 33.79 0 0 0 2.762-.3c.11-.016.223-.038.334-.056a39.157 39.157 0 0 0 2.211-.414c.12-.026.239-.049.36-.076a41.737 41.737 0 0 0 2.492-.648c.238-.07.477-.145.716-.22.269-.083.536-.163.805-.253l.024-.008c.467-.156.936-.32 1.406-.496.311-.116.624-.243.935-.367.2-.08.397-.158.596-.24a44.474 44.474 0 0 0 1.56-.686c.333-.153.665-.31.997-.473.18-.089.362-.183.543-.275a44.452 44.452 0 0 0 3.623-2.06c.074-.048.15-.093.224-.141.406-.26.81-.532 1.211-.809a43.764 43.764 0 0 0 1.447-1.037 43.532 43.532 0 0 0 3.83-3.238l.11-.104a43.172 43.172 0 0 0 5.781-6.806 43.695 43.695 0 0 0 2.953-4.99 64.292 18.367 0 0 0-37.47-3.471zM47.19 99.049H80.81c1.928 0 2.756 1.289 1.48 3.23-1.779 2.716-8.405 7.944-18.289 7.944-9.884 0-16.51-5.228-18.29-7.944-1.275-1.941-.447-3.23 1.481-3.23z" fill="#6d4c41" paint-order="stroke fill markers"/><path d="M76.38 100.52H64 51.62c-1.42 0-2.03.95-1.09 2.38 1.31 2 6.19 5.85 13.47 5.85s12.16-3.85 13.47-5.85c.94-1.43.33-2.38-1.09-2.38z" fill="#513f35"/></svg>
